X:10968
T:Miss Ratray
R:Reel
S:Paddy O'Brien
H:
N:
D:Stranger At The Gate
Z:Adrian Scahill
M:4/4
L:1/8
K:D
d2AG FDFA|Beed cABc|d2AG FDDg|fdec dABc|\
d2AG FDFA|Beed cABc|dcdA BGAG|FDEF D4:||\
defg afdF|GBed cAAe|fgaf dAFA|GBec dcde|\
fgaf dAFA|GBed cABc|fdge afbg|fdec dABc:||
